X: 113
T: Lass Trumponey
%R: jig
B: Daniel Wright "Wright's Compleat Collection of Celebrated Country Dances" 1740 p.57
S: http://library.efdss.org/cgi-bin/dancebooks.cgi
Z: 2014 John Chambers <jc:trillian.mit.edu>
M: 6/8
L: 1/8
K: F
% - - - - - - - - - - - - - - - - - - - - - - - - -
[|\
B/c/dc BGc | BGB dBG | B/c/dc BGB | ABc cAF |][|\
f2d  e>dc | Bcd dBG | f2d efg | ABc cAF |]
[|\
Bcd cde | Bcd dBG | cde Bcd | ABc cAF |][|\
f2d e>dc | Bcd dBg | f2d e>dc | fed cAF |]
% - - - - - - - - - - - - - - - - - - - - - - - - -
%%begintext align
%% First Man turn the 2d Wo. and cast off .|
%% the 2d Wo. turn the 1st Man and cast off :|
%% Lead to the Wall back again, all 4 take
%% Hands and go quite round .| the 1st Cu.
%% lead thro' 2d Cu. and cast off, and foot it
%% to each other, then turn Hands :|
%%endtext
% - - - - - - - - - - - - - - - - - - - - - - - - -
%%sep 2 4 300
